X:1
T:[ID 3-83 (=3v-32)]
T:[ID 3-83 (=3v-32)]
T:Bezeichnung standardisiert: Allegro Allegro
T:Urheber unbekannt Datum in der hier transkribierten schriftlichen Quelle: 1767
C:Urheber unbekannt
C:Datum in der hier transkribierten schriftlichen Quelle: 1767
%%score 1 2
L:1/8
M:2/4
K:D
V:1 treble 
V:2 treble 
V:1
 dd/c/ df | e z g z | fa fe/d/ | ce A2 | dd/c/ df | e z g z | fa Ac | d2 A2 :: ff/e/ fa | e z c z | %10
 dc Be | cB/c/ A2 | e z e z | e z e z | cB/A/ B^G | A4 | =c z c z | BA/B/ G2 | d z d z | cB/c/ A2 | %20
 dd/c/ df | e z g z | fe/d/ ec | d4 :| %24
V:2
 !fermata!FF/E/ Fd | c z e z | df dB | AE E2 | FF/E/ Fd | c z e z | dd cE | F4 :: dd/c/ dd | %9
 c z A z | ^GA BG | A^G A2 | z e z e | z e z e | AF EE | E4 | z =c z c | GF G2 | z d z d | A^G A2 | %20
 FF/A/ Fd | c z e z | dG cG | A4 :| %24

